X: 16593
T: Hand Me Down The Tacklings
R: reel
M: 4/4
K: Gmajor
DGGA B2 AG|FD D2 FD D2|DGGA B2 AG|cAFB AG G2:|
Gdde d2cB|Accd c2 BA|Gdde d2 cB|cAFB AG G2|
Gdde d2cB|Accd c2 BA|B3 G A3 d|cAFB AG G2||

